public/library/whatsapp.svg

<?xml version="1.0" encoding="UTF-8"?>
<svg width="256px" height="259px" viewBox="0 0 256 259" version="1.1" xmlns="http://www.w3.org/2000/svg" xmlns:xlink="http://www.w3.org/1999/xlink" preserveAspectRatio="xMidYMid">
    <g>
        <path d="M67.6631045,221.823373 L71.8484512,223.916047 C89.2873956,234.379413 108.819013,239.262318 128.350631,239.262318 L128.350631,239.262318 C189.735716,239.262318 239.959876,189.038158 239.959876,127.653073 C239.959876,98.3556467 228.101393,69.7557778 207.17466,48.8290445 C186.247927,27.9023111 158.345616,16.0438289 128.350631,16.0438289 C66.9655467,16.0438289 16.7413867,66.2679889 17.4389445,128.350631 C17.4389445,149.277365 23.7169645,169.50654 34.1803311,186.945485 L36.9705622,191.130831 L25.8096378,232.28674 L67.6631045,221.823373 Z" fill="#00E676"></path>
        <path d="M219.033142,37.66812 C195.316178,13.2535978 162.530962,0 129.048189,0 C57.8972956,0 0.697557778,57.8972956 1.39511556,128.350631 C1.39511556,150.67248 7.67313556,172.296771 18.1365022,191.828389 L0,258.096378 L67.6631045,240.657433 C86.4971645,251.1208 107.423898,256.003705 128.350631,256.003705 L128.350631,256.003705 C198.803967,256.003705 256.003705,198.106409 256.003705,127.653073 C256.003705,93.4727423 242.750107,61.3850845 219.033142,37.66812 Z M129.048189,234.379413 L129.048189,234.379413 C110.214129,234.379413 91.380069,229.496509 75.3362401,219.7307 L71.1508934,217.638027 L30.6925422,228.101393 L41.1559089,188.3406 L38.3656778,184.155253 C7.67313556,134.628651 22.3218489,69.05822 72.5460089,38.3656778 C122.770169,7.67313556 187.643042,22.3218489 218.335585,72.5460089 C249.028127,122.770169 234.379413,187.643042 184.155253,218.335585 C168.111425,228.798951 148.579807,234.379413 129.048189,234.379413 Z M190.433273,156.9505 L182.760138,153.462711 C182.760138,153.462711 171.599213,148.579807 164.623636,145.092018 C163.926078,145.092018 163.22852,144.39446 162.530962,144.39446 C160.438289,144.39446 159.043173,145.092018 157.648058,145.789576 L157.648058,145.789576 C157.648058,145.789576 156.9505,146.487133 147.184691,157.648058 C146.487133,159.043173 145.092018,159.740731 143.696902,159.740731 L142.999345,159.740731 C142.301787,159.740731 140.906671,159.043173 140.209113,158.345616 L136.721325,156.9505 L136.721325,156.9505 C129.048189,153.462711 122.072611,149.277365 116.492149,143.696902 C115.097033,142.301787 113.00436,140.906671 111.609245,139.511556 C106.72634,134.628651 101.843436,129.048189 98.3556467,122.770169 L97.658089,121.375053 C96.9605312,120.677496 96.9605312,119.979938 96.2629734,118.584822 C96.2629734,117.189707 96.2629734,115.794591 96.9605312,115.097033 C96.9605312,115.097033 99.7507623,111.609245 101.843436,109.516571 C103.238551,108.121456 103.936109,106.028782 105.331225,104.633667 C106.72634,102.540993 107.423898,99.7507623 106.72634,97.658089 C106.028782,94.1703001 97.658089,75.3362401 95.5654156,71.1508934 C94.1703001,69.05822 92.7751845,68.3606623 90.6825112,67.6631045 L88.5898378,67.6631045 C87.1947223,67.6631045 85.1020489,67.6631045 83.0093756,67.6631045 C81.6142601,67.6631045 80.2191445,68.3606623 78.8240289,68.3606623 L78.1264712,69.05822 C76.7313556,69.7557778 75.3362401,71.1508934 73.9411245,71.8484512 C72.5460089,73.2435667 71.8484512,74.6386823 70.4533356,76.0337978 C65.5704312,82.3118178 62.7802,89.9849534 62.7802,97.658089 L62.7802,97.658089 C62.7802,103.238551 64.1753156,108.819013 66.2679889,113.701918 L66.9655467,115.794591 C73.2435667,129.048189 81.6142601,140.906671 92.7751845,151.370038 L95.5654156,154.160269 C97.658089,156.252942 99.7507623,157.648058 101.145878,159.740731 C115.794591,172.296771 132.535978,181.365022 151.370038,186.247927 C153.462711,186.945485 156.252942,186.945485 158.345616,187.643042 L158.345616,187.643042 C160.438289,187.643042 163.22852,187.643042 165.321193,187.643042 C168.808982,187.643042 172.994329,186.247927 175.78456,184.852811 C177.877233,183.457696 179.272349,183.457696 180.667465,182.06258 L182.06258,180.667465 C183.457696,179.272349 184.852811,178.574791 186.247927,177.179676 C187.643042,175.78456 189.038158,174.389445 189.735716,172.994329 C191.130831,170.204098 191.828389,166.716309 192.525947,163.22852 C192.525947,161.833405 192.525947,159.740731 192.525947,158.345616 C192.525947,158.345616 191.828389,157.648058 190.433273,156.9505 Z" fill="#FFFFFF"></path>
    </g>
</svg>

<svg width="256" height="259" xmlns="http://www.w3.org/2000/svg" preserveAspectRatio="xMidYMid"><path d="m67.663 221.823 4.185 2.093c17.44 10.463 36.971 15.346 56.503 15.346 61.385 0 111.609-50.224 111.609-111.609 0-29.297-11.859-57.897-32.785-78.824-20.927-20.927-48.83-32.785-78.824-32.785-61.385 0-111.61 50.224-110.912 112.307 0 20.926 6.278 41.156 16.741 58.594l2.79 4.186-11.16 41.156 41.853-10.464Z" fill="#00E676"/><path d="M219.033 37.668C195.316 13.254 162.531 0 129.048 0 57.898 0 .698 57.897 1.395 128.35c0 22.322 6.278 43.947 16.742 63.478L0 258.096l67.663-17.439c18.834 10.464 39.76 15.347 60.688 15.347 70.453 0 127.653-57.898 127.653-128.35 0-34.181-13.254-66.269-36.97-89.986ZM129.048 234.38c-18.834 0-37.668-4.882-53.712-14.648l-4.185-2.093-40.458 10.463 10.463-39.76-2.79-4.186C7.673 134.63 22.322 69.058 72.546 38.365c50.224-30.692 115.097-16.043 145.79 34.181 30.692 50.224 16.043 115.097-34.18 145.79-16.045 10.463-35.576 16.043-55.108 16.043Zm61.385-77.428-7.673-3.488s-11.16-4.883-18.136-8.371c-.698 0-1.395-.698-2.093-.698-2.093 0-3.488.698-4.883 1.396 0 0-.697.697-10.463 11.858-.698 1.395-2.093 2.093-3.488 2.093h-.698c-.697 0-2.092-.698-2.79-1.395l-3.488-1.395c-7.673-3.488-14.648-7.674-20.229-13.254-1.395-1.395-3.488-2.79-4.883-4.185-4.883-4.883-9.766-10.464-13.253-16.742l-.698-1.395c-.697-.698-.697-1.395-1.395-2.79 0-1.395 0-2.79.698-3.488 0 0 2.79-3.488 4.882-5.58 1.396-1.396 2.093-3.488 3.488-4.883 1.395-2.093 2.093-4.883 1.395-6.976-.697-3.488-9.068-22.322-11.16-26.507-1.396-2.093-2.79-2.79-4.883-3.488H83.01c-1.396 0-2.79.698-4.186.698l-.698.697c-1.395.698-2.79 2.093-4.185 2.79-1.395 1.396-2.093 2.79-3.488 4.186-4.883 6.278-7.673 13.951-7.673 21.624 0 5.58 1.395 11.161 3.488 16.044l.698 2.093c6.278 13.253 14.648 25.112 25.81 35.575l2.79 2.79c2.092 2.093 4.185 3.488 5.58 5.58 14.649 12.557 31.39 21.625 50.224 26.508 2.093.697 4.883.697 6.976 1.395h6.975c3.488 0 7.673-1.395 10.464-2.79 2.092-1.395 3.487-1.395 4.882-2.79l1.396-1.396c1.395-1.395 2.79-2.092 4.185-3.487 1.395-1.395 2.79-2.79 3.488-4.186 1.395-2.79 2.092-6.278 2.79-9.765v-4.883s-.698-.698-2.093-1.395Z" fill="#FFF"/></svg>
